korla/status/symbolic/checkbox-checked-symbolic.svg

<svg xmlns="http://www.w3.org/2000/svg" width="16" height="16" version="1.1">
 <path style="fill:#dfdfdf" d="M 4,2 C 2.89,2 2,2.89 2,4 V 12 C 2,13.11 2.89,14 4,14 H 12 C 13.11,14 14,13.11 14,12 V 7.25 L 13,8.41 V 12 C 13,12.55 12.55,13 12,13 H 4 C 3.45,13 3,12.55 3,12 V 4 C 3,3.45 3.45,3 4,3 H 12 C 12.13,3 12.23,3.05 12.34,3.09 L 13.03,2.28 C 12.73,2.1 12.38,2 12,2 Z"/>
 <path style="fill:#dfdfdf" d="M 14.278,2.3705 8.0005,9.561 5.7505,7.3105 C 5.2887,6.8608 4.6905,6.9405 4.3105,7.3105 3.9405,7.6905 3.8548,8.2947 4.3105,8.7505 L 8.0905,12.5 15.778,3.6905 C 16.537,2.8206 15.214,1.2986 14.278,2.3705 Z"/>
</svg>

<svg style="clip-rule:evenodd;fill-rule:evenodd;stroke-linejoin:round;stroke-miterlimit:2" version="1.1" viewBox="0 0 16 16" xmlns="http://www.w3.org/2000/svg">
 <path d="m4 2c-1.11 0-2 0.89-2 2v8c0 1.11 0.89 2 2 2h8c1.11 0 2-0.89 2-2v-4.75l-1 1.16v3.59c0 0.55-0.45 1-1 1h-8c-0.55 0-1-0.45-1-1v-8c0-0.55 0.45-1 1-1h8c0.13 0 0.23 0.05 0.34 0.09l0.69-0.81c-0.3-0.18-0.65-0.28-1.03-0.28h-8z" style="fill-rule:nonzero;fill:rgb(223,223,223)"/>
 <path d="m14.278 2.371-6.277 7.19-2.628-1.834c-0.993-0.828-1.734-0.271-0.765 0.746l3.483 4.027 7.052-9.564c0.759-0.87 0.071-1.637-0.865-0.565z" style="fill-rule:nonzero;fill:rgb(223,223,223)"/>
</svg>
